gama.ui.shared/icons_svg/light/views/tabs/view.problems.svg

<?xml version="1.0" encoding="UTF-8" standalone="no"?>
<!DOCTYPE svg PUBLIC "-//W3C//DTD SVG 1.1//EN" "http://www.w3.org/Graphics/SVG/1.1/DTD/svg11.dtd">
<svg xmlns="http://www.w3.org/2000/svg" xmlns:dc="http://purl.org/dc/elements/1.1/" version="1.1" xmlns:xl="http://www.w3.org/1999/xlink" viewBox="-494.6491 -2973.7685 24.75 24.75" width="24.75" height="24.75">
  <defs/>
  <g id="SOURCES" fill="none" stroke="none" stroke-dasharray="none" fill-opacity="1" stroke-opacity="1">
    <title>SOURCES</title>
    <g id="SOURCES_Light">
      <title>Light</title>
      <g id="Group_12723">
        <g id="Group_9834">
          <title>checkmark-circle</title>
          <g id="Graphic_9835">
            <path d="M -482.2741 -2954.3935 C -486.1381 -2954.3935 -489.2741 -2957.5295 -489.2741 -2961.3935 C -489.2741 -2965.2575 -486.1381 -2968.3935 -482.2741 -2968.3935 C -478.4101 -2968.3935 -475.2741 -2965.2575 -475.2741 -2961.3935 C -475.2741 -2957.5295 -478.4101 -2954.3935 -482.2741 -2954.3935 Z M -482.2741 -2955.0935 C -478.7951 -2955.0935 -475.9741 -2957.9145 -475.9741 -2961.3935 C -475.9741 -2964.8725 -478.7951 -2967.6935 -482.2741 -2967.6935 C -485.7531 -2967.6935 -488.5741 -2964.8725 -488.5741 -2961.3935 C -488.5741 -2957.9145 -485.7531 -2955.0935 -482.2741 -2955.0935 Z M -480.0691 -2963.3885 C -479.9291 -2963.5285 -479.7121 -2963.5285 -479.5721 -2963.3885 C -479.4321 -2963.2485 -479.4321 -2963.0315 -479.5721 -2962.8915 L -483.0721 -2959.3915 C -483.2121 -2959.2515 -483.4291 -2959.2515 -483.5691 -2959.3915 L -484.9691 -2960.7915 C -485.1091 -2960.9315 -485.1091 -2961.1485 -484.9691 -2961.2885 C -484.8291 -2961.4285 -484.6121 -2961.4285 -484.4721 -2961.2885 L -483.3171 -2960.1335 L -480.0621 -2963.3885 Z" fill="#5c76a2"/>
          </g>
        </g>
        <g id="Graphic_12716"/>
      </g>
    </g>
  </g>
</svg>

<svg height="24.75" viewBox="-494.649 -2973.769 24.75 24.75" width="24.75" xmlns="http://www.w3.org/2000/svg"><path d="m-482.2741-2954.3935c-3.864 0-7-3.136-7-7s3.136-7 7-7 7 3.136 7 7-3.136 7-7 7zm0-.7c3.479 0 6.3-2.821 6.3-6.3s-2.821-6.3-6.3-6.3-6.3 2.821-6.3 6.3 2.821 6.3 6.3 6.3zm2.205-8.295c.14-.14.357-.14.497 0s.14.357 0 .497l-3.5 3.5c-.14.14-.357.14-.497 0l-1.4-1.4c-.14-.14-.14-.357 0-.497s.357-.14.497 0l1.155 1.155 3.255-3.255z" fill="#5c76a2"/></svg>
